X:1
T:Tyroller oder Deutsche Daenz nr. 57.
C:traditionell
R:
A:Wippstetten, Niederbayern
F:http://simonwascher.info
Z:abc transcription Simon Wascher aktualisiert am 02Nov02
M:2/8
L:1/16
K:A
V:1
E |\
A3c | e3d | B3G | E3G |\
A3c | e3d | HE2 zE |\
A3c | (3e2f2d2 | e3d | e3d |\
(3c2B2A2 | B3G | HA2 z:|
V:2
C |\
F3A | c3B | G3E | C3E |\
F3A | c3B | HC2 zC |\
F3A | (3c2d2B2 | c3B | c3B |\
(3A2G2F2 | G3E | HC2 z:|
V:1
e |\
g3B | f3B | e3f | g3B |\
(3a2b2g2 | f3^d | HB2 zf |\
g3B | f3B | e3^d | e2 za | (3g2f2e2 | f3^d | "dacapo"e3 :|
V:2
c |\
e3G | "( )"d3G | c3"( )"d | e3G | (3f2g2e2 |\
^d3B | HG2 zd |\
e3G | d3G | c3B | c2 zf | (3e2"( )"d2c2 | "( )"d3B | "dacapo"G3 :|
V:1
M:6/8
L:1/8
K:G
"eingerichtet von Simon Wascher:"\
D |\
G2B d2c | A2F D2F | G2B d2c | D3 D2D |\
G2B dec | d2c d2c | BAG A2F | G3 G2 :|
K:D
d |\
^f2A e2A | d2e f2A | gaf e2c | A3 A2e |\
f2A e2A | d2c d2g | fed e2c | d3 d2 :|
W:aus Simon Waschers TradArchiv

